X: 032259
T: Cat Rambles to the Child's Saucepan
S: Johnny Cronin and Joe Burke (Shanachie 29005, 1977)
Z: BB
N: This is the name Johnny used to give for any tune whose real 
N: name he didn't know or recall (or care to share!)
R: Slide
M: 12/8
Q: 1/8=400   
L: 1/8
K: D
A | d2e f2a baf a2f | e2A cBA e2A cBA | 
d2e f2a baf a2f | e2A cBA d3 d2 :|
A | d2e f2e dcd B3 | g2A cBA e2A cBA | 
d2e f2e dcd B2e | g2A cBA d3 d2 :|
